static/icons/icons-about-article.svg

<svg height="25" viewBox="0 0 14 25" width="14" xmlns="http://www.w3.org/2000/svg"><g fill="#909090"><path d="m9 5.51785714v3.25c0 .06770867-.02176318.12332568-.06529018.16685268s-.09914401.06529018-.16685268.06529018h-2.32142857c-.06770867 0-.12332567-.02176318-.16685268-.06529018-.043527-.043527-.06529018-.09914401-.06529018-.16685268v-.46428571c0-.06770867.02176318-.12332568.06529018-.16685268.04352701-.043527.09914401-.06529018.16685268-.06529018h1.625v-2.55357143c0-.06770867.02176318-.12332567.06529018-.16685268.043527-.043527.09914401-.06529017.16685268-.06529017h.46428571c.06770867 0 .12332568.02176317.16685268.06529017.043527.04352701.06529018.09914401.06529018.16685268zm2.4882813 4.53404016c.3530523-.60454169.5295758-1.26469134.5295758-1.98046873s-.1765235-1.37592704-.5295758-1.98046875c-.3530524-.60454171-.8318423-1.08333157-1.436384-1.43638393-.60454169-.35305236-1.26469134-.52957589-1.98046873-.52957589s-1.37592704.17652353-1.98046875.52957589-1.08333157.83184222-1.43638393 1.43638393-.52957589 1.26469136-.52957589 1.98046875.17652353 1.37592704.52957589 1.98046873c.35305236.6045417.83184222 1.0833316 1.43638393 1.4363839.60454171.3530524 1.26469136.5295759 1.98046875.5295759s1.37592704-.1765235 1.98046873-.5295759c.6045417-.3530523 1.0833316-.8318422 1.436384-1.4363839zm1.407366-4.77343748c.4981424.85119473.7472098 1.78217501.7472098 2.79296875 0 1.01079375-.2490674 1.94298313-.7472098 2.79659603s-1.1740098 1.5294803-2.0276227 2.0276227-1.78580228.7472098-2.79659603.7472098c-1.01079374 0-1.94298308-.2490674-2.79659598-.7472098s-1.5294804-1.1740098-2.02762277-2.0276227-.74720982-1.78580228-.74720982-2.79659603c0-1.01079374.24906745-1.94298308.74720982-2.79659598s1.17400987-1.5294804 2.02762277-2.02762277 1.78580224-.74720982 2.79659598-.74720982c1.01079375 0 1.94298313.24906745 2.79659603.74720982s1.5294803 1.17521894 2.0276227 2.03125z" transform="translate(-1 -2)"/><path d="m13.5714286 7.82142857c-.7351228-1.14137475-1.6564305-1.99497485-2.7639509-2.56082589.2950163.5029787.4425223 1.04705808.4425223 1.63225446 0 .89472174-.3179842 1.66006007-.9539621 2.29603795-.63597784.63597788-1.40131616.95396201-2.2960379.95396201s-1.66006006-.31798413-2.29603795-.95396201c-.63597788-.63597788-.95396205-1.40131621-.95396205-2.29603795 0-.58519638.14750597-1.12927576.44252232-1.63225446-1.10752042.56585104-2.02882817 1.41945114-2.76395089 2.56082589.64323238.99144841 1.44967893 1.78096805 2.41936384 2.36858263.96968491.5876145 2.02036264.8814174 3.15206473.8814174s2.1823798-.2938029 3.1520647-.8814174c.9696849-.58761458 1.7761315-1.37713422 2.4193639-2.36858263zm-5.32477681-2.5390625c.06770867-.06770867.1015625-.14992511.1015625-.24665178 0-.09672668-.03385383-.17894312-.1015625-.24665179-.06770868-.06770867-.14992512-.1015625-.24665179-.1015625-.60454171 0-1.12323072.21642269-1.55608259.64927455-.43285187.43285187-.64927455.95154088-.64927455 1.55608259 0 .09672668.03385383.17894312.1015625.24665179s.14992511.1015625.24665178.1015625c.09672668 0 .17894312-.03385383.24665179-.1015625s.1015625-.14992511.1015625-.24665179c0-.4159247.14750596-.77138989.44252232-1.06640625.29501636-.29501635.65048155-.44252232 1.06640625-.44252232.09672667 0 .17894311-.03385383.24665179-.1015625zm6.10825891 2.03850447c.0967267.16927168.1450893.33612269.1450893.50055803 0 .16443535-.0483626.33128636-.1450893.50055804-.6770867 1.11235675-1.5875129 2.00343789-2.7313058 2.67327009s-2.35164914 1.0047433-3.6236049 1.0047433-2.47981199-.3361202-3.62360491-1.0083705c-1.14379292-.6722504-2.05421909-1.56212247-2.7313058-2.66964289-.09672668-.16927168-.14508929-.33612269-.14508929-.50055804 0-.16443534.04836261-.33128635.14508929-.50055803.67708671-1.10752042 1.58751288-1.99739248 2.7313058-2.66964286 1.14379292-.67225039 2.35164915-1.00837054 3.62360491-1.00837054s2.479812.33612015 3.6236049 1.00837054c1.1437929.67225038 2.0542191 1.56212244 2.7313058 2.66964286z" transform="translate(-1 13)"/></g></svg>

<?xml version="1.0" encoding="UTF-8"?>
<svg width="14px" height="25px" viewBox="0 0 14 25" version="1.1" xmlns="http://www.w3.org/2000/svg" xmlns:xlink="http://www.w3.org/1999/xlink">
    <!-- Generator: Sketch 58 (84663) - https://sketch.com -->
    <title>icons</title>
    <desc>Created with Sketch.</desc>
    <g id="Specs" stroke="none" stroke-width="1" fill="none" fill-rule="evenodd">
        <g id="Artboard" transform="translate(-117.000000, -178.000000)" fill="#909090" fill-rule="nonzero">
            <g id="icons" transform="translate(116.000000, 176.000000)">
                <g id="Group-8">
                    <path d="M9,5.51785714 L9,8.76785714 C9,8.83556581 8.97823682,8.89118282 8.93470982,8.93470982 C8.89118282,8.97823682 8.83556581,9 8.76785714,9 L6.44642857,9 C6.3787199,9 6.3231029,8.97823682 6.27957589,8.93470982 C6.23604889,8.89118282 6.21428571,8.83556581 6.21428571,8.76785714 L6.21428571,8.30357143 C6.21428571,8.23586276 6.23604889,8.18024575 6.27957589,8.13671875 C6.3231029,8.09319175 6.3787199,8.07142857 6.44642857,8.07142857 L8.07142857,8.07142857 L8.07142857,5.51785714 C8.07142857,5.45014847 8.09319175,5.39453147 8.13671875,5.35100446 C8.18024575,5.30747746 8.23586276,5.28571429 8.30357143,5.28571429 L8.76785714,5.28571429 C8.83556581,5.28571429 8.89118282,5.30747746 8.93470982,5.35100446 C8.97823682,5.39453147 9,5.45014847 9,5.51785714 Z M11.4882813,10.0518973 C11.8413336,9.44735561 12.0178571,8.78720596 12.0178571,8.07142857 C12.0178571,7.35565118 11.8413336,6.69550153 11.4882813,6.09095982 C11.1352289,5.48641811 10.656439,5.00762825 10.0518973,4.65457589 C9.44735561,4.30152353 8.78720596,4.125 8.07142857,4.125 C7.35565118,4.125 6.69550153,4.30152353 6.09095982,4.65457589 C5.48641811,5.00762825 5.00762825,5.48641811 4.65457589,6.09095982 C4.30152353,6.69550153 4.125,7.35565118 4.125,8.07142857 C4.125,8.78720596 4.30152353,9.44735561 4.65457589,10.0518973 C5.00762825,10.656439 5.48641811,11.1352289 6.09095982,11.4882812 C6.69550153,11.8413336 7.35565118,12.0178571 8.07142857,12.0178571 C8.78720596,12.0178571 9.44735561,11.8413336 10.0518973,11.4882812 C10.656439,11.1352289 11.1352289,10.656439 11.4882813,10.0518973 Z M12.8956473,5.27845982 C13.3937897,6.12965455 13.6428571,7.06063483 13.6428571,8.07142857 C13.6428571,9.08222232 13.3937897,10.0144117 12.8956473,10.8680246 C12.3975049,11.7216375 11.7216375,12.3975049 10.8680246,12.8956473 C10.0144117,13.3937897 9.08222232,13.6428571 8.07142857,13.6428571 C7.06063483,13.6428571 6.12844549,13.3937897 5.27483259,12.8956473 C4.42121969,12.3975049 3.74535219,11.7216375 3.24720982,10.8680246 C2.74906745,10.0144117 2.5,9.08222232 2.5,8.07142857 C2.5,7.06063483 2.74906745,6.12844549 3.24720982,5.27483259 C3.74535219,4.42121969 4.42121969,3.74535219 5.27483259,3.24720982 C6.12844549,2.74906745 7.06063483,2.5 8.07142857,2.5 C9.08222232,2.5 10.0144117,2.74906745 10.8680246,3.24720982 C11.7216375,3.74535219 12.3975049,4.42242876 12.8956473,5.27845982 Z" id="icon-time"></path>
                </g>
                <g id="Group-9" transform="translate(0.000000, 15.000000)">
                    <path d="M13.5714286,7.82142857 C12.8363058,6.68005382 11.9149981,5.82645372 10.8074777,5.26060268 C11.102494,5.76358138 11.25,6.30766076 11.25,6.89285714 C11.25,7.78757888 10.9320158,8.55291721 10.2960379,9.18889509 C9.66006006,9.82487297 8.89472174,10.1428571 8,10.1428571 C7.10527826,10.1428571 6.33993994,9.82487297 5.70396205,9.18889509 C5.06798417,8.55291721 4.75,7.78757888 4.75,6.89285714 C4.75,6.30766076 4.89750597,5.76358138 5.19252232,5.26060268 C4.0850019,5.82645372 3.16369415,6.68005382 2.42857143,7.82142857 C3.07180381,8.81287698 3.87825036,9.60239662 4.84793527,10.1900112 C5.81762018,10.7776257 6.86829791,11.0714286 8,11.0714286 C9.13170209,11.0714286 10.1823798,10.7776257 11.1520647,10.1900112 C12.1217496,9.60239662 12.9281962,8.81287698 13.5714286,7.82142857 Z M8.24665179,5.28236607 C8.31436046,5.2146574 8.34821429,5.13244096 8.34821429,5.03571429 C8.34821429,4.93898761 8.31436046,4.85677117 8.24665179,4.7890625 C8.17894311,4.72135383 8.09672667,4.6875 8,4.6875 C7.39545829,4.6875 6.87676928,4.90392269 6.44391741,5.33677455 C6.01106554,5.76962642 5.79464286,6.28831543 5.79464286,6.89285714 C5.79464286,6.98958382 5.82849669,7.07180026 5.89620536,7.13950893 C5.96391403,7.2072176 6.04613047,7.24107143 6.14285714,7.24107143 C6.23958382,7.24107143 6.32180026,7.2072176 6.38950893,7.13950893 C6.4572176,7.07180026 6.49107143,6.98958382 6.49107143,6.89285714 C6.49107143,6.47693244 6.63857739,6.12146725 6.93359375,5.82645089 C7.22861011,5.53143454 7.5840753,5.38392857 8,5.38392857 C8.09672667,5.38392857 8.17894311,5.35007474 8.24665179,5.28236607 Z M14.3549107,7.32087054 C14.4516374,7.49014222 14.5,7.65699323 14.5,7.82142857 C14.5,7.98586392 14.4516374,8.15271493 14.3549107,8.32198661 C13.677824,9.43434336 12.7673978,10.3254245 11.6236049,10.9952567 C10.479812,11.6650889 9.27195576,12 8,12 C6.72804424,12 5.52018801,11.6638798 4.37639509,10.9916295 C3.23260217,10.3193791 2.322176,9.42950703 1.64508929,8.32198661 C1.54836261,8.15271493 1.5,7.98586392 1.5,7.82142857 C1.5,7.65699323 1.54836261,7.49014222 1.64508929,7.32087054 C2.322176,6.21335012 3.23260217,5.32347806 4.37639509,4.65122768 C5.52018801,3.97897729 6.72804424,3.64285714 8,3.64285714 C9.27195576,3.64285714 10.479812,3.97897729 11.6236049,4.65122768 C12.7673978,5.32347806 13.677824,6.21335012 14.3549107,7.32087054 Z" id="icon-views"></path>
                </g>
            </g>
        </g>
    </g>
</svg>
